X: 1
T: Josie's Visit
C: Brendan Tonra
M: 6/8
L: 1/8
R: jig
K: Dmaj
~f3 edB|BAF FEF|~E3 DFA|B/c/dB Ade|
faf edB|BAF FEF|~E3 DFA|BAF Dde:|
|:~f3 afe|dcd ~B3|AFE DFA|BAF EFA|
~B3 AFE|DFA B/c/dB|Ade ~f3|edc cde:|
